outputs/icons/hardware/security_sharp.svg

<svg xmlns="http://www.w3.org/2000/svg" width="1200" height="1200" fill="none"><g clip-path="url(#a)"><path fill="#000" d="M600 50 150 250v300c0 277.5 192 537 450 600 258-63 450-322.5 450-600V250zm0 549.5h350c-26.5 206-164 389.5-350 447V600H250V315l350-155.5z"/></g><defs><clipPath id="a"><path fill="#fff" d="M0 0h1200v1200H0z"/></clipPath></defs></svg>

<svg width="1200" height="1200" viewBox="0 0 1200 1200" fill="none" xmlns="http://www.w3.org/2000/svg"><g clip-path="url(#clip0_133_24)"><path d="M600 50L150 250V550C150 827.5 342 1087 600 1150C858 1087 1050 827.5 1050 550V250L600 50ZM600 599.5H950C923.5 805.5 786 989 600 1046.5V600H250V315L600 159.5V599.5Z" fill="#1D1E23"/></g><defs><clipPath id="clip0_133_24"><path width="24" fill="white" d="M0 0H1200V1200H0V0z"/></clipPath></defs></svg>
